svgs/light/person-booth.svg

<svg xmlns="http://www.w3.org/2000/svg" viewBox="0 0 576 512"><!--! Font Awesome Pro 6.3.0 by @fontawesome - https://fontawesome.com License - https://fontawesome.com/license (Commercial License) Copyright 2023 Fonticons, Inc. --><path d="M240 336C231.2 336 224 343.2 224 352v144C224 504.8 231.2 512 240 512S256 504.8 256 496V352C256 343.2 248.8 336 240 336zM64 128c35.35 0 64-28.65 64-64S99.35 0 64 0S.002 28.65 .002 64S28.65 128 64 128zM64 32c17.64 0 32 14.36 32 32S81.64 96 64 96S32 81.64 32 64S46.36 32 64 32zM528 0h-256C245.5 0 224 21.53 224 48V192c0 8.844 7.156 16 16 16S256 200.8 256 192V48C256 39.17 263.2 32 272 32h64l.2656 221.1l-32 176c-1.594 8.688 4.172 17.02 12.88 18.59C318.1 447.9 319.1 448 320 448c7.594 0 14.34-5.406 15.73-13.14L368 256V32h32v400c0 8.844 7.156 16 16 16s16-7.156 16-16V32h32v400c0 8.844 7.156 16 16 16s16-7.156 16-16V32h32C536.8 32 544 39.17 544 48v448c0 8.844 7.156 16 16 16s16-7.156 16-16v-448C576 21.53 554.5 0 528 0zM240 240H178.1c-5.594 0-10.86-2.984-13.73-7.766L142.2 195.2C129.1 173.5 105.3 160 80 160H64C28.7 160 .025 188.8 .025 224.1L0 496C0 504.8 7.156 512 16 512s15.94-7.156 15.94-16L32 224c0-17.64 14.36-32 32-32h16c14.14 0 27.47 7.531 34.75 19.67l22.2 37.05C145.6 263.1 161.4 272 178.1 272H240C248.8 272 256 264.8 256 256S248.8 240 240 240zM121.7 343.9C115.4 335.6 112 325.3 112 314.9V256c0-8.844-7.156-16-16-16S80 247.2 80 256v58.94c0 17.27 5.734 34.38 16.14 48.19l22.17 29.39C124.6 400.8 128 411.1 128 421.4V496C128 504.8 135.2 512 144 512S160 504.8 160 496v-74.56c0-17.27-5.734-34.38-16.14-48.19L121.7 343.9z"/></svg>

<svg xmlns="http://www.w3.org/2000/svg" viewBox="0 0 576 512"><!-- Font Awesome Pro 6.0.0-alpha2 by @fontawesome - https://fontawesome.com License - https://fontawesome.com/license (Commercial License) --><path d="M240 336C231.156 336 224 343.156 224 352V496C224 504.844 231.156 512 240 512S256 504.844 256 496V352C256 343.156 248.844 336 240 336ZM64 128C99.346 128 128 99.348 128 64S99.346 0 64 0S0.002 28.652 0.002 64S28.654 128 64 128ZM64 32C81.645 32 96 46.355 96 64S81.645 96 64 96S32 81.645 32 64S46.355 32 64 32ZM528 0H272C245.531 0 224 21.531 224 48V192C224 200.844 231.156 208 240 208S256 200.844 256 192V48C256 39.172 263.172 32 272 32H336L336.266 253.141L304.266 429.141C302.672 437.828 308.438 446.156 317.141 447.734C318.109 447.922 319.062 448 320.016 448C327.609 448 334.344 442.594 335.734 434.859L368 256V32H400V432C400 440.844 407.156 448 416 448S432 440.844 432 432V32H464V432C464 440.844 471.156 448 480 448S496 440.844 496 432V32H528C536.828 32 544 39.172 544 48V496C544 504.844 551.156 512 560 512S576 504.844 576 496V48C576 21.531 554.469 0 528 0ZM240 240H178.125C172.531 240 167.266 237.016 164.391 232.234L142.188 195.203C129.141 173.484 105.312 160 80 160H64C28.703 160 0 188.703 0 224V496C0 504.844 7.156 512 16 512S32 504.844 32 496V224C32 206.359 46.359 192 64 192H80C94.141 192 107.469 199.531 114.75 211.672L136.953 248.719C145.594 263.078 161.375 272 178.125 272H240C248.844 272 256 264.844 256 256S248.844 240 240 240ZM121.688 343.859C115.438 335.562 112 325.297 112 314.938V256C112 247.156 104.844 240 96 240S80 247.156 80 256V314.938C80 332.203 85.734 349.313 96.141 363.125L118.312 392.516C124.562 400.812 128 411.078 128 421.438V496C128 504.844 135.156 512 144 512S160 504.844 160 496V421.438C160 404.172 154.266 387.062 143.859 373.25L121.688 343.859Z"/></svg>
